X: 10413
T: RUMORS OF PRIEST'S HOUSE
C:
%R: reel
B: Elias Howe "The Musician's Companion" Part 1 1842 p.41 #3
S: http://imslp.org/wiki/The_Musician's_Companion_(Howe,_Elias)
Z: 2015 John Chambers <jc:trillian.mit.edu>
M: C|
L: 1/8
K: A
% - - - - - - - - - - - - - - - - - - - - - - - - -
|:\
cdef ecac | ecac dBB2 |\
cdef ecac | dfed cAA2 ::\
E2E2 A2Ac | BABd cAFA |
E2E2 A2Ac | BABc Acec |\
E2E2 A2Ac | BABc cAFA |\
E2E2 Acec | BABc A2A2 :|
|: (3efg |\
aece fgaf | ecBd cAFA |\
aece fgaf |1 ecBc A2A2 :|2 ecBc A2 :|
% - - - - - - - - - - - - - - - - - - - - - - - - -


